X:5
T:Charters Reel THO3.005
O:England;London
M:C|
L:1/8
Z:vmp. Peter Dunk 2011.from a transcription by Fynn Titford-Mock 2006-9
B:Thompson's Compleat Collection of 200 Favourite Country Dances Vol. III.1765-72
Q:1/2=80
K:A
[A2E2A,2] (cA) (ef)ec|[a2A2](ec) B/B/B B2|\
A/A/A cA f a2f|ecBc A/A/A A2:|
|:[A2A,2][cC][AA,] [eE][AA,][cC][AA,]|\
[A2A,2][AA,][cC] [B/B,/][B/B,/][BB,] [B2B,2]|\
[A2A,2] [cC][AA,] [eE][AA,][cC][AA,]|c>eB>c A/A/A A2|
[A2A,2][cC][AA,] [eE][AA,][cC][AA,]|\
[A2A,2][AA,][cC] [B/B,/][B/B,/][BB,] [BB,][cC]|\
[A2A,2] [cC][eE][fF][cC] [A3E3A,3] f|e>cB>c A/A/A A2:|

